assets/icons/dashboard/edit.svg

<svg width="24" height="24" viewBox="0 0 24 24" fill="none" xmlns="http://www.w3.org/2000/svg">
<path d="M22 12V18C22 20.2091 20.2091 22 18 22H6C3.79086 22 2 20.2091 2 18V6C2 3.79086 3.79086 2 6 2H12M15.6864 4.02275C15.6864 4.02275 15.6864 5.45305 17.1167 6.88334C18.547 8.31364 19.9773 8.31364 19.9773 8.31364M9.15467 15.9896L12.1583 15.5605C12.5916 15.4986 12.9931 15.2978 13.3025 14.9884L21.4076 6.88334C22.1975 6.09341 22.1975 4.81268 21.4076 4.02275L19.9773 2.59245C19.1873 1.80252 17.9066 1.80252 17.1167 2.59245L9.01164 10.6975C8.70217 11.0069 8.50142 11.4084 8.43952 11.8417L8.01044 14.8453C7.91508 15.5128 8.4872 16.0849 9.15467 15.9896Z" stroke="currentColor" stroke-width="1.5" stroke-linecap="round"/>
</svg>

<svg xmlns="http://www.w3.org/2000/svg" fill="none" viewBox="0 0 24 24">
  <path stroke="currentColor" stroke-linecap="round" stroke-width="1.5"
    d="M22 12v6a4 4 0 0 1-4 4H6a4 4 0 0 1-4-4V6a4 4 0 0 1 4-4h6m3.686 2.023s0 1.43 1.43 2.86c1.431 1.43 2.861 1.43 2.861 1.43M9.155 15.99l3.003-.43a2.023 2.023 0 0 0 1.145-.572l8.105-8.105c.79-.79.79-2.07 0-2.86l-1.43-1.43c-.79-.79-2.071-.79-2.861 0l-8.105 8.104c-.31.31-.51.711-.572 1.145l-.43 3.003a1.011 1.011 0 0 0 1.145 1.145Z" />
</svg>
